packages/tokens/icons/report3/size32Px.svg

<svg viewBox="0 0 32 32" fill="none" xmlns="http://www.w3.org/2000/svg" width="1em" height="1em"><path d="M24 27.5L8 27.5C7.17157 27.5 6.5 26.8284 6.5 26L6.5 6C6.5 5.17157 7.17157 4.5 8 4.5L18.1309 4.5C18.5467 4.5 18.9438 4.67257 19.2275 4.97652L25.0966 11.2648C25.3558 11.5426 25.5 11.9084 25.5 12.2883L25.5 26C25.5 26.8284 24.8284 27.5 24 27.5Z" stroke="currentColor"/><path d="M17.4919 4V9.5C17.4919 10.6046 18.3874 11.5 19.4919 11.5H24.9865" stroke="currentColor"/><path d="M9.5 23.5L13 17L17 21L21 14" stroke="currentColor"/><circle cx="13" cy="17" r="0.5" stroke="currentColor"/><circle cx="17" cy="21" r="0.5" stroke="currentColor"/><circle cx="21" cy="14" r="0.5" stroke="currentColor"/><path d="M9.5 13.5L9.5 23.5H21.5" stroke="currentColor" stroke-linecap="round" stroke-linejoin="round"/></svg>

<svg xmlns="http://www.w3.org/2000/svg" fill="none" viewBox="0 0 32 32" width="1em" height="1em"><path stroke="currentColor" d="M24 27.5H8A1.5 1.5 0 0 1 6.5 26V6A1.5 1.5 0 0 1 8 4.5h10.13a1.5 1.5 0 0 1 1.098.477l5.869 6.288a1.5 1.5 0 0 1 .403 1.023V26a1.5 1.5 0 0 1-1.5 1.5Z"/><path stroke="currentColor" d="M17.492 4v5.5a2 2 0 0 0 2 2h5.494M9.5 23.5 13 17l4 4 4-7"/><circle cx="13" cy="17" r=".5" stroke="currentColor"/><circle cx="17" cy="21" r=".5" stroke="currentColor"/><circle cx="21" cy="14" r=".5" stroke="currentColor"/><path stroke="currentColor" stroke-linecap="round" stroke-linejoin="round" d="M9.5 13.5v10h12"/></svg>
